X:259
T: Die versoffenen Kleider (26a), S. 104
N: T0148
O: Luxemburg
S: Singendes Volk, Esch-Alzette 1937 posth.]
N: Straen, fff Witry, 24.1.1933;
N: (26b)- Consdorf, geschriebenes Liederbuch (1848-1915)
R: Liebeslieder]
M: 3/4
L: 1/8
K: F
F2 | F2C2AA | A2F2
cc | d2c2BF | F2z2
Fd | ddddfd | dcc2
dc | cBBBdB | BAA2
c2 | d2c2BF | F2z2

